lib/assets/svg/button/dk_add_to_google_wallet_wallet-button.svg

<svg fill="none" height="50" viewBox="0 0 270 50" width="270" xmlns="http://www.w3.org/2000/svg" xmlns:xlink="http://www.w3.org/1999/xlink"><linearGradient id="a" gradientUnits="userSpaceOnUse" x1="34.5703" x2="18.7309" y1="30.7864" y2="48.9133"><stop offset="0" stop-color="#4285f4"/><stop offset="1" stop-color="#1b74e8"/></linearGradient><rect fill="#1f1f1f" height="49" rx="24.5" width="269" x=".5" y=".5"/><path d="m51 22h-30v-5c0-2.7143 2.2018-5 4.8165-5h20.367c2.6147 0 4.8165 2.2857 4.8165 5z" fill="#34a853"/><path d="m51 26.0537h-30v-5c0-2.7143 2.2018-5 4.8165-5h20.367c2.6147 0 4.8165 2.2857 4.8165 5z" fill="#fbbc04"/><path d="m51 30.2468h-30v-5c0-2.7143 2.2018-5 4.8165-5h20.367c2.6147 0 4.8165 2.2857 4.8165 5z" fill="#ea4335"/><path d="m21 23.2752 19.0411 4.4037c2.1918.5505 4.6575 0 6.4384-1.3761l4.5205-3.3028v10.3211c0 2.6147-2.1918 4.6789-4.7945 4.6789h-20.411c-2.6027 0-4.7945-2.0642-4.7945-4.6789z" fill="url(#a)"/><path d="m64.62 32v-14.32h8.68v2.08h-6.48v4.2h5.84v2.08h-5.84v5.96zm14.8697.32c-1.0533 0-1.98-.24-2.78-.72s-1.4267-1.1267-1.88-1.94-.68-1.7333-.68-2.76c0-1.0133.2267-1.9267.68-2.74.4533-.8267 1.08-1.48 1.88-1.96s1.7267-.72 2.78-.72c1.04 0 1.96.24 2.76.72s1.4267 1.1333 1.88 1.96c.4533.8133.68 1.7267.68 2.74 0 1.0267-.2267 1.9467-.68 2.76s-1.08 1.46-1.88 1.94-1.72.72-2.76.72zm0-1.98c.56 0 1.08-.1333 1.56-.4.48-.28.8667-.6733 1.16-1.18.3067-.52.46-1.14.46-1.86s-.1533-1.3333-.46-1.84c-.2933-.52-.68-.9133-1.16-1.18-.48-.28-1-.42-1.56-.42s-1.0867.14-1.58.42c-.48.2667-.8733.66-1.18 1.18-.2933.5067-.44 1.12-.44 1.84s.1467 1.34.44 1.86c.3067.5067.7.9 1.18 1.18.4933.2667 1.02.4 1.58.4zm-2.66 2.4-1.44-.82 6.78-10.86 1.44.8zm11.1117-12.44c-.4 0-.7467-.14-1.04-.42-.28-.2933-.42-.64-.42-1.04s.14-.74.42-1.02c.2933-.28.64-.42 1.04-.42s.74.14 1.02.42c.2933.28.44.62.44 1.02s-.1467.7467-.44 1.04c-.28.28-.62.42-1.02.42zm-1.94 16.22c-.4133 0-.7867-.0467-1.12-.14v-2.08c.1333.08.2867.14.46.18.16.0533.32.08.48.08.3867 0 .6533-.12.8-.36.16-.2267.24-.56.24-1v-11.4h2.16v11.42c0 1.1733-.2867 2.0133-.86 2.52-.5733.52-1.2933.78-2.16.78zm11.448-7.48v-5.36h-1.78v-1.88h1.78v-2.88h2.16v2.88h2.4996v1.88h-2.4996v4.9c0 .5067.1.8933.3 1.16.2136.2667.5666.4 1.0596.4.254 0 .467-.0333.64-.1.187-.0667.374-.16.56-.28v2.1c-.226.0933-.466.1667-.72.22-.253.0533-.553.08-.9.08-.9463 0-1.6996-.2733-2.2596-.82-.56-.56-.84-1.3267-.84-2.3zm8.0706-8.74c-.4 0-.747-.14-1.04-.42-.28-.2933-.42-.64-.42-1.04s.14-.74.42-1.02c.293-.28.64-.42 1.04-.42s.74.14 1.02.42c.293.28.44.62.44 1.02s-.147.7467-.44 1.04c-.28.28-.62.42-1.02.42zm-1.08 11.7v-10.2h2.16v10.2zm4.86 0v-14.32h2.16v14.32z" fill="#fff"/><path d="m126.4 32.32c-1.027 0-1.993-.1867-2.9-.56-.893-.3733-1.687-.8933-2.38-1.56-.693-.68-1.24-1.4733-1.64-2.38-.387-.92-.58-1.9133-.58-2.98s.193-2.0533.58-2.96c.4-.92.94-1.7133 1.62-2.38.693-.68 1.493-1.2067 2.4-1.58s1.873-.56 2.9-.56c1.093 0 2.1.1933 3.02.58.933.3867 1.713.9267 2.34 1.62l-1.52 1.5c-.467-.52-1.027-.92-1.68-1.2-.64-.28-1.36-.42-2.16-.42-.947 0-1.82.2267-2.62.68-.8.44-1.447 1.0667-1.94 1.88-.48.8-.72 1.7467-.72 2.84s.247 2.0467.74 2.86c.493.8 1.14 1.4267 1.94 1.88.8.44 1.673.66 2.62.66.867 0 1.653-.16 2.36-.48.707-.3333 1.273-.8 1.7-1.4.44-.6.707-1.32.8-2.16h-4.9v-1.94h6.96c.08.36.12.74.12 1.14v.02c0 1.3867-.307 2.6-.92 3.64-.6 1.0267-1.433 1.8267-2.5 2.4s-2.28.86-3.64.86zm13.5 0c-1.053 0-1.98-.24-2.78-.72s-1.427-1.1267-1.88-1.94-.68-1.7333-.68-2.76c0-1.0133.227-1.9267.68-2.74.453-.8267 1.08-1.48 1.88-1.96s1.727-.72 2.78-.72c1.04 0 1.96.24 2.76.72s1.427 1.1333 1.88 1.96c.453.8133.68 1.7267.68 2.74 0 1.0267-.227 1.9467-.68 2.76s-1.08 1.46-1.88 1.94-1.72.72-2.76.72zm0-1.98c.56 0 1.08-.1333 1.56-.4.48-.28.867-.6733 1.16-1.18.307-.52.46-1.14.46-1.86s-.153-1.3333-.46-1.84c-.293-.52-.68-.9133-1.16-1.18-.48-.28-1-.42-1.56-.42s-1.087.14-1.58.42c-.48.2667-.873.66-1.18 1.18-.293.5067-.44 1.12-.44 1.84s.147 1.34.44 1.86c.307.5067.7.9 1.18 1.18.493.2667 1.02.4 1.58.4zm12.109 1.98c-1.053 0-1.98-.24-2.78-.72s-1.426-1.1267-1.88-1.94c-.453-.8133-.68-1.7333-.68-2.76 0-1.0133.227-1.9267.68-2.74.454-.8267 1.08-1.48 1.88-1.96s1.727-.72 2.78-.72c1.04 0 1.96.24 2.76.72s1.427 1.1333 1.88 1.96c.454.8133.68 1.7267.68 2.74 0 1.0267-.226 1.9467-.68 2.76-.453.8133-1.08 1.46-1.88 1.94s-1.72.72-2.76.72zm0-1.98c.56 0 1.08-.1333 1.56-.4.48-.28.867-.6733 1.16-1.18.307-.52.46-1.14.46-1.86s-.153-1.3333-.46-1.84c-.293-.52-.68-.9133-1.16-1.18-.48-.28-1-.42-1.56-.42s-1.086.14-1.58.42c-.48.2667-.873.66-1.18 1.18-.293.5067-.44 1.12-.44 1.84s.147 1.34.44 1.86c.307.5067.7.9 1.18 1.18.494.2667 1.02.4 1.58.4zm11.91 6.3c-.894 0-1.667-.1467-2.32-.44-.64-.28-1.16-.6467-1.56-1.1-.4-.44-.687-.8933-.86-1.36l2-.84c.213.5333.553.9667 1.02 1.3.48.3467 1.053.52 1.72.52.933 0 1.666-.28 2.2-.84.546-.56.82-1.3533.82-2.38v-.98h-.12c-.32.48-.767.8667-1.34 1.16-.56.28-1.2.42-1.92.42-.867 0-1.66-.22-2.38-.66s-1.3-1.0533-1.74-1.84c-.44-.8-.66-1.7333-.66-2.8 0-1.08.22-2.0133.66-2.8.44-.8 1.02-1.42 1.74-1.86s1.513-.66 2.38-.66c.72 0 1.36.1467 1.92.44.573.2933 1.02.68 1.34 1.16h.12v-1.28h2.06v9.66c0 1.1067-.22 2.0467-.66 2.82-.427.7733-1.02 1.36-1.78 1.76s-1.64.6-2.64.6zm.02-6.5c.533 0 1.026-.1267 1.48-.38.453-.2667.82-.6467 1.1-1.14.28-.5067.42-1.1133.42-1.82 0-.7333-.14-1.3467-.42-1.84-.28-.5067-.647-.8867-1.1-1.14-.454-.2533-.947-.38-1.48-.38-.534 0-1.034.1333-1.5.4-.454.2533-.82.6267-1.1 1.12s-.42 1.1067-.42 1.84c0 .72.14 1.3333.42 1.84.28.4933.646.8667 1.1 1.12.466.2533.966.38 1.5.38zm7.607 1.86v-14.32h2.16v14.32zm9.269.32c-1 0-1.894-.2333-2.68-.7-.787-.4667-1.407-1.1067-1.86-1.92-.44-.8133-.66-1.74-.66-2.78 0-.9733.213-1.8733.64-2.7.426-.8267 1.02-1.4867 1.78-1.98.773-.5067 1.66-.76 2.66-.76 1.053 0 1.946.2267 2.68.68.746.4533 1.313 1.0733 1.7 1.86.386.7867.58 1.6733.58 2.66 0 .1467-.007.28-.02.4 0 .12-.007.2133-.02.28h-7.88c.106 1.0133.46 1.7733 1.06 2.28.613.5067 1.306.76 2.08.76.693 0 1.266-.1533 1.72-.46.453-.32.813-.7133 1.08-1.18l1.78.86c-.44.8-1.04 1.4533-1.8 1.96-.76.4933-1.707.74-2.84.74zm-.1-9c-.72 0-1.334.22-1.84.66-.507.44-.847 1.0267-1.02 1.76h5.66c-.027-.3467-.14-.7067-.34-1.08s-.507-.6867-.92-.94c-.4-.2667-.914-.4-1.54-.4zm13.731 8.68-3.84-14.32h2.44l2.28 9.3.24 1.24h.12l.3-1.24 2.88-9.3h2.2l2.76 9.3.3 1.22h.12l.24-1.22 2.28-9.3h2.42l-3.78 14.32h-2.32l-2.74-9.5-.32-1.34h-.12l-.34 1.34-2.86 9.5zm18.756.32c-.733 0-1.386-.14-1.96-.42-.573-.2933-1.02-.7-1.34-1.22s-.48-1.1133-.48-1.78c0-.72.187-1.3333.56-1.84.387-.52.9-.9133 1.54-1.18s1.347-.4 2.12-.4c.64 0 1.2.06 1.68.18.494.12.867.2467 1.12.38v-.54c0-.6667-.24-1.2-.72-1.6s-1.1-.6-1.86-.6c-.52 0-1.013.12-1.48.36-.466.2267-.84.54-1.12.94l-1.48-1.14c.44-.6133 1.02-1.0933 1.74-1.44.734-.36 1.534-.54 2.4-.54 1.48 0 2.62.3667 3.42 1.1.8.72 1.2 1.7333 1.2 3.04v6.38h-2.1v-1.26h-.12c-.266.4133-.666.78-1.2 1.1-.533.32-1.173.48-1.92.48zm.38-1.76c.56 0 1.054-.1333 1.48-.4.427-.2667.76-.6133 1-1.04.254-.44.38-.9133.38-1.42-.306-.1733-.666-.3133-1.08-.42-.413-.12-.853-.18-1.32-.18-.88 0-1.506.18-1.88.54-.373.3467-.56.7733-.56 1.28 0 .48.18.8733.54 1.18s.84.46 1.44.46zm7.358 1.44v-14.32h2.16v14.32zm4.727 0v-14.32h2.16v14.32zm9.269.32c-1 0-1.894-.2333-2.68-.7-.787-.4667-1.407-1.1067-1.86-1.92-.44-.8133-.66-1.74-.66-2.78 0-.9733.213-1.8733.64-2.7.426-.8267 1.02-1.4867 1.78-1.98.773-.5067 1.66-.76 2.66-.76 1.053 0 1.946.2267 2.68.68.746.4533 1.313 1.0733 1.7 1.86.386.7867.58 1.6733.58 2.66 0 .1467-.007.28-.02.4 0 .12-.007.2133-.02.28h-7.88c.106 1.0133.46 1.7733 1.06 2.28.613.5067 1.306.76 2.08.76.693 0 1.266-.1533 1.72-.46.453-.32.813-.7133 1.08-1.18l1.78.86c-.44.8-1.04 1.4533-1.8 1.96-.76.4933-1.707.74-2.84.74zm-.1-9c-.72 0-1.334.22-1.84.66-.507.44-.847 1.0267-1.02 1.76h5.66c-.027-.3467-.14-.7067-.34-1.08s-.507-.6867-.92-.94c-.4-.2667-.914-.4-1.54-.4zm7.731 5.72v-5.36h-1.78v-1.88h1.78v-2.88h2.16v2.88h2.5v1.88h-2.5v4.9c0 .5067.1.8933.3 1.16.213.2667.566.4 1.06.4.253 0 .466-.0333.64-.1.186-.0667.373-.16.56-.28v2.1c-.227.0933-.467.1667-.72.22-.254.0533-.554.08-.9.08-.947 0-1.7-.2733-2.26-.82-.56-.56-.84-1.3267-.84-2.3z" fill="#fff"/><rect height="49" rx="24.5" stroke="#747775" width="269" x=".5" y=".5"/></svg>

<svg width="270" height="50" viewBox="0 0 270 50" fill="none" xmlns="http://www.w3.org/2000/svg">
<rect x="0.5" y="0.5" width="269" height="49" rx="24.5" fill="#1F1F1F"/>
<path d="M51 22H21V17C21 14.2857 23.2018 12 25.8165 12H46.1835C48.7982 12 51 14.2857 51 17V22Z" fill="#34A853"/>
<path d="M51 26.0537H21V21.0537C21 18.3394 23.2018 16.0537 25.8165 16.0537H46.1835C48.7982 16.0537 51 18.3394 51 21.0537V26.0537Z" fill="#FBBC04"/>
<path d="M51 30.2468H21V25.2468C21 22.5325 23.2018 20.2468 25.8165 20.2468H46.1835C48.7982 20.2468 51 22.5325 51 25.2468V30.2468Z" fill="#EA4335"/>
<path d="M21 23.2752L40.0411 27.6789C42.2329 28.2294 44.6986 27.6789 46.4795 26.3028L51 23V33.3211C51 35.9358 48.8082 38 46.2055 38H25.7945C23.1918 38 21 35.9358 21 33.3211V23.2752Z" fill="url(#paint0_linear_1819_24082)"/>
<path d="M64.62 32V17.68H73.3V19.76H66.82V23.96H72.66V26.04H66.82V32H64.62ZM79.4897 32.32C78.4364 32.32 77.5097 32.08 76.7097 31.6C75.9097 31.12 75.283 30.4733 74.8297 29.66C74.3764 28.8467 74.1497 27.9267 74.1497 26.9C74.1497 25.8867 74.3764 24.9733 74.8297 24.16C75.283 23.3333 75.9097 22.68 76.7097 22.2C77.5097 21.72 78.4364 21.48 79.4897 21.48C80.5297 21.48 81.4497 21.72 82.2497 22.2C83.0497 22.68 83.6764 23.3333 84.1297 24.16C84.583 24.9733 84.8097 25.8867 84.8097 26.9C84.8097 27.9267 84.583 28.8467 84.1297 29.66C83.6764 30.4733 83.0497 31.12 82.2497 31.6C81.4497 32.08 80.5297 32.32 79.4897 32.32ZM79.4897 30.34C80.0497 30.34 80.5697 30.2067 81.0497 29.94C81.5297 29.66 81.9164 29.2667 82.2097 28.76C82.5164 28.24 82.6697 27.62 82.6697 26.9C82.6697 26.18 82.5164 25.5667 82.2097 25.06C81.9164 24.54 81.5297 24.1467 81.0497 23.88C80.5697 23.6 80.0497 23.46 79.4897 23.46C78.9297 23.46 78.403 23.6 77.9097 23.88C77.4297 24.1467 77.0364 24.54 76.7297 25.06C76.4364 25.5667 76.2897 26.18 76.2897 26.9C76.2897 27.62 76.4364 28.24 76.7297 28.76C77.0364 29.2667 77.4297 29.66 77.9097 29.94C78.403 30.2067 78.9297 30.34 79.4897 30.34ZM76.8297 32.74L75.3897 31.92L82.1697 21.06L83.6097 21.86L76.8297 32.74ZM87.9414 20.3C87.5414 20.3 87.1947 20.16 86.9014 19.88C86.6214 19.5867 86.4814 19.24 86.4814 18.84C86.4814 18.44 86.6214 18.1 86.9014 17.82C87.1947 17.54 87.5414 17.4 87.9414 17.4C88.3414 17.4 88.6814 17.54 88.9614 17.82C89.2547 18.1 89.4014 18.44 89.4014 18.84C89.4014 19.24 89.2547 19.5867 88.9614 19.88C88.6814 20.16 88.3414 20.3 87.9414 20.3ZM86.0014 36.52C85.5881 36.52 85.2147 36.4733 84.8814 36.38V34.3C85.0147 34.38 85.1681 34.44 85.3414 34.48C85.5014 34.5333 85.6614 34.56 85.8214 34.56C86.2081 34.56 86.4747 34.44 86.6214 34.2C86.7814 33.9733 86.8614 33.64 86.8614 33.2V21.8H89.0214V33.22C89.0214 34.3933 88.7347 35.2333 88.1614 35.74C87.5881 36.26 86.8681 36.52 86.0014 36.52ZM97.4494 29.04V23.68H95.6694V21.8H97.4494V18.92H99.6094V21.8H102.109V23.68H99.6094V28.58C99.6094 29.0867 99.7094 29.4733 99.9094 29.74C100.123 30.0067 100.476 30.14 100.969 30.14C101.223 30.14 101.436 30.1067 101.609 30.04C101.796 29.9733 101.983 29.88 102.169 29.76V31.86C101.943 31.9533 101.703 32.0267 101.449 32.08C101.196 32.1333 100.896 32.16 100.549 32.16C99.6027 32.16 98.8494 31.8867 98.2894 31.34C97.7294 30.78 97.4494 30.0133 97.4494 29.04ZM105.52 20.3C105.12 20.3 104.773 20.16 104.48 19.88C104.2 19.5867 104.06 19.24 104.06 18.84C104.06 18.44 104.2 18.1 104.48 17.82C104.773 17.54 105.12 17.4 105.52 17.4C105.92 17.4 106.26 17.54 106.54 17.82C106.833 18.1 106.98 18.44 106.98 18.84C106.98 19.24 106.833 19.5867 106.54 19.88C106.26 20.16 105.92 20.3 105.52 20.3ZM104.44 32V21.8H106.6V32H104.44ZM109.3 32V17.68H111.46V32H109.3Z" fill="white"/>
<path d="M126.4 32.32C125.373 32.32 124.407 32.1333 123.5 31.76C122.607 31.3867 121.813 30.8667 121.12 30.2C120.427 29.52 119.88 28.7267 119.48 27.82C119.093 26.9 118.9 25.9067 118.9 24.84C118.9 23.7733 119.093 22.7867 119.48 21.88C119.88 20.96 120.42 20.1667 121.1 19.5C121.793 18.82 122.593 18.2933 123.5 17.92C124.407 17.5467 125.373 17.36 126.4 17.36C127.493 17.36 128.5 17.5533 129.42 17.94C130.353 18.3267 131.133 18.8667 131.76 19.56L130.24 21.06C129.773 20.54 129.213 20.14 128.56 19.86C127.92 19.58 127.2 19.44 126.4 19.44C125.453 19.44 124.58 19.6667 123.78 20.12C122.98 20.56 122.333 21.1867 121.84 22C121.36 22.8 121.12 23.7467 121.12 24.84C121.12 25.9333 121.367 26.8867 121.86 27.7C122.353 28.5 123 29.1267 123.8 29.58C124.6 30.02 125.473 30.24 126.42 30.24C127.287 30.24 128.073 30.08 128.78 29.76C129.487 29.4267 130.053 28.96 130.48 28.36C130.92 27.76 131.187 27.04 131.28 26.2H126.38V24.26H133.34C133.42 24.62 133.46 25 133.46 25.4V25.42C133.46 26.8067 133.153 28.02 132.54 29.06C131.94 30.0867 131.107 30.8867 130.04 31.46C128.973 32.0333 127.76 32.32 126.4 32.32ZM139.9 32.32C138.847 32.32 137.92 32.08 137.12 31.6C136.32 31.12 135.693 30.4733 135.24 29.66C134.787 28.8467 134.56 27.9267 134.56 26.9C134.56 25.8867 134.787 24.9733 135.24 24.16C135.693 23.3333 136.32 22.68 137.12 22.2C137.92 21.72 138.847 21.48 139.9 21.48C140.94 21.48 141.86 21.72 142.66 22.2C143.46 22.68 144.087 23.3333 144.54 24.16C144.993 24.9733 145.22 25.8867 145.22 26.9C145.22 27.9267 144.993 28.8467 144.54 29.66C144.087 30.4733 143.46 31.12 142.66 31.6C141.86 32.08 140.94 32.32 139.9 32.32ZM139.9 30.34C140.46 30.34 140.98 30.2067 141.46 29.94C141.94 29.66 142.327 29.2667 142.62 28.76C142.927 28.24 143.08 27.62 143.08 26.9C143.08 26.18 142.927 25.5667 142.62 25.06C142.327 24.54 141.94 24.1467 141.46 23.88C140.98 23.6 140.46 23.46 139.9 23.46C139.34 23.46 138.813 23.6 138.32 23.88C137.84 24.1467 137.447 24.54 137.14 25.06C136.847 25.5667 136.7 26.18 136.7 26.9C136.7 27.62 136.847 28.24 137.14 28.76C137.447 29.2667 137.84 29.66 138.32 29.94C138.813 30.2067 139.34 30.34 139.9 30.34ZM152.009 32.32C150.956 32.32 150.029 32.08 149.229 31.6C148.429 31.12 147.803 30.4733 147.349 29.66C146.896 28.8467 146.669 27.9267 146.669 26.9C146.669 25.8867 146.896 24.9733 147.349 24.16C147.803 23.3333 148.429 22.68 149.229 22.2C150.029 21.72 150.956 21.48 152.009 21.48C153.049 21.48 153.969 21.72 154.769 22.2C155.569 22.68 156.196 23.3333 156.649 24.16C157.103 24.9733 157.329 25.8867 157.329 26.9C157.329 27.9267 157.103 28.8467 156.649 29.66C156.196 30.4733 155.569 31.12 154.769 31.6C153.969 32.08 153.049 32.32 152.009 32.32ZM152.009 30.34C152.569 30.34 153.089 30.2067 153.569 29.94C154.049 29.66 154.436 29.2667 154.729 28.76C155.036 28.24 155.189 27.62 155.189 26.9C155.189 26.18 155.036 25.5667 154.729 25.06C154.436 24.54 154.049 24.1467 153.569 23.88C153.089 23.6 152.569 23.46 152.009 23.46C151.449 23.46 150.923 23.6 150.429 23.88C149.949 24.1467 149.556 24.54 149.249 25.06C148.956 25.5667 148.809 26.18 148.809 26.9C148.809 27.62 148.956 28.24 149.249 28.76C149.556 29.2667 149.949 29.66 150.429 29.94C150.923 30.2067 151.449 30.34 152.009 30.34ZM163.919 36.64C163.025 36.64 162.252 36.4933 161.599 36.2C160.959 35.92 160.439 35.5533 160.039 35.1C159.639 34.66 159.352 34.2067 159.179 33.74L161.179 32.9C161.392 33.4333 161.732 33.8667 162.199 34.2C162.679 34.5467 163.252 34.72 163.919 34.72C164.852 34.72 165.585 34.44 166.119 33.88C166.665 33.32 166.939 32.5267 166.939 31.5V30.52H166.819C166.499 31 166.052 31.3867 165.479 31.68C164.919 31.96 164.279 32.1 163.559 32.1C162.692 32.1 161.899 31.88 161.179 31.44C160.459 31 159.879 30.3867 159.439 29.6C158.999 28.8 158.779 27.8667 158.779 26.8C158.779 25.72 158.999 24.7867 159.439 24C159.879 23.2 160.459 22.58 161.179 22.14C161.899 21.7 162.692 21.48 163.559 21.48C164.279 21.48 164.919 21.6267 165.479 21.92C166.052 22.2133 166.499 22.6 166.819 23.08H166.939V21.8H168.999V31.46C168.999 32.5667 168.779 33.5067 168.339 34.28C167.912 35.0533 167.319 35.64 166.559 36.04C165.799 36.44 164.919 36.64 163.919 36.64ZM163.939 30.14C164.472 30.14 164.965 30.0133 165.419 29.76C165.872 29.4933 166.239 29.1133 166.519 28.62C166.799 28.1133 166.939 27.5067 166.939 26.8C166.939 26.0667 166.799 25.4533 166.519 24.96C166.239 24.4533 165.872 24.0733 165.419 23.82C164.965 23.5667 164.472 23.44 163.939 23.44C163.405 23.44 162.905 23.5733 162.439 23.84C161.985 24.0933 161.619 24.4667 161.339 24.96C161.059 25.4533 160.919 26.0667 160.919 26.8C160.919 27.52 161.059 28.1333 161.339 28.64C161.619 29.1333 161.985 29.5067 162.439 29.76C162.905 30.0133 163.405 30.14 163.939 30.14ZM171.546 32V17.68H173.706V32H171.546ZM180.815 32.32C179.815 32.32 178.921 32.0867 178.135 31.62C177.348 31.1533 176.728 30.5133 176.275 29.7C175.835 28.8867 175.615 27.96 175.615 26.92C175.615 25.9467 175.828 25.0467 176.255 24.22C176.681 23.3933 177.275 22.7333 178.035 22.24C178.808 21.7333 179.695 21.48 180.695 21.48C181.748 21.48 182.641 21.7067 183.375 22.16C184.121 22.6133 184.688 23.2333 185.075 24.02C185.461 24.8067 185.655 25.6933 185.655 26.68C185.655 26.8267 185.648 26.96 185.635 27.08C185.635 27.2 185.628 27.2933 185.615 27.36H177.735C177.841 28.3733 178.195 29.1333 178.795 29.64C179.408 30.1467 180.101 30.4 180.875 30.4C181.568 30.4 182.141 30.2467 182.595 29.94C183.048 29.62 183.408 29.2267 183.675 28.76L185.455 29.62C185.015 30.42 184.415 31.0733 183.655 31.58C182.895 32.0733 181.948 32.32 180.815 32.32ZM180.715 23.32C179.995 23.32 179.381 23.54 178.875 23.98C178.368 24.42 178.028 25.0067 177.855 25.74H183.515C183.488 25.3933 183.375 25.0333 183.175 24.66C182.975 24.2867 182.668 23.9733 182.255 23.72C181.855 23.4533 181.341 23.32 180.715 23.32ZM194.446 32L190.606 17.68H193.046L195.326 26.98L195.566 28.22H195.686L195.986 26.98L198.866 17.68H201.066L203.826 26.98L204.126 28.2H204.246L204.486 26.98L206.766 17.68H209.186L205.406 32H203.086L200.346 22.5L200.026 21.16H199.906L199.566 22.5L196.706 32H194.446ZM213.202 32.32C212.469 32.32 211.816 32.18 211.242 31.9C210.669 31.6067 210.222 31.2 209.902 30.68C209.582 30.16 209.422 29.5667 209.422 28.9C209.422 28.18 209.609 27.5667 209.982 27.06C210.369 26.54 210.882 26.1467 211.522 25.88C212.162 25.6133 212.869 25.48 213.642 25.48C214.282 25.48 214.842 25.54 215.322 25.66C215.816 25.78 216.189 25.9067 216.442 26.04V25.5C216.442 24.8333 216.202 24.3 215.722 23.9C215.242 23.5 214.622 23.3 213.862 23.3C213.342 23.3 212.849 23.42 212.382 23.66C211.916 23.8867 211.542 24.2 211.262 24.6L209.782 23.46C210.222 22.8467 210.802 22.3667 211.522 22.02C212.256 21.66 213.056 21.48 213.922 21.48C215.402 21.48 216.542 21.8467 217.342 22.58C218.142 23.3 218.542 24.3133 218.542 25.62V32H216.442V30.74H216.322C216.056 31.1533 215.656 31.52 215.122 31.84C214.589 32.16 213.949 32.32 213.202 32.32ZM213.582 30.56C214.142 30.56 214.636 30.4267 215.062 30.16C215.489 29.8933 215.822 29.5467 216.062 29.12C216.316 28.68 216.442 28.2067 216.442 27.7C216.136 27.5267 215.776 27.3867 215.362 27.28C214.949 27.16 214.509 27.1 214.042 27.1C213.162 27.1 212.536 27.28 212.162 27.64C211.789 27.9867 211.602 28.4133 211.602 28.92C211.602 29.4 211.782 29.7933 212.142 30.1C212.502 30.4067 212.982 30.56 213.582 30.56ZM220.94 32V17.68H223.1V32H220.94ZM225.667 32V17.68H227.827V32H225.667ZM234.936 32.32C233.936 32.32 233.042 32.0867 232.256 31.62C231.469 31.1533 230.849 30.5133 230.396 29.7C229.956 28.8867 229.736 27.96 229.736 26.92C229.736 25.9467 229.949 25.0467 230.376 24.22C230.802 23.3933 231.396 22.7333 232.156 22.24C232.929 21.7333 233.816 21.48 234.816 21.48C235.869 21.48 236.762 21.7067 237.496 22.16C238.242 22.6133 238.809 23.2333 239.196 24.02C239.582 24.8067 239.776 25.6933 239.776 26.68C239.776 26.8267 239.769 26.96 239.756 27.08C239.756 27.2 239.749 27.2933 239.736 27.36H231.856C231.962 28.3733 232.316 29.1333 232.916 29.64C233.529 30.1467 234.222 30.4 234.996 30.4C235.689 30.4 236.262 30.2467 236.716 29.94C237.169 29.62 237.529 29.2267 237.796 28.76L239.576 29.62C239.136 30.42 238.536 31.0733 237.776 31.58C237.016 32.0733 236.069 32.32 234.936 32.32ZM234.836 23.32C234.116 23.32 233.502 23.54 232.996 23.98C232.489 24.42 232.149 25.0067 231.976 25.74H237.636C237.609 25.3933 237.496 25.0333 237.296 24.66C237.096 24.2867 236.789 23.9733 236.376 23.72C235.976 23.4533 235.462 23.32 234.836 23.32ZM242.567 29.04V23.68H240.787V21.8H242.567V18.92H244.727V21.8H247.227V23.68H244.727V28.58C244.727 29.0867 244.827 29.4733 245.027 29.74C245.24 30.0067 245.593 30.14 246.087 30.14C246.34 30.14 246.553 30.1067 246.727 30.04C246.913 29.9733 247.1 29.88 247.287 29.76V31.86C247.06 31.9533 246.82 32.0267 246.567 32.08C246.313 32.1333 246.013 32.16 245.667 32.16C244.72 32.16 243.967 31.8867 243.407 31.34C242.847 30.78 242.567 30.0133 242.567 29.04Z" fill="white"/>
<rect x="0.5" y="0.5" width="269" height="49" rx="24.5" stroke="#747775"/>
<defs>
<linearGradient id="paint0_linear_1819_24082" x1="34.5703" y1="30.7864" x2="18.7309" y2="48.9133" gradientUnits="userSpaceOnUse">
<stop stop-color="#4285F4"/>
<stop offset="1" stop-color="#1B74E8"/>
</linearGradient>
</defs>
</svg>
